X: 39428
T: Taramundi
R: waltz
M: 3/4
K: Gmajor
G2A BBB|BAB c3|F2G AAA|AGA B3|
G2A BBB|BAB c2d|BBc AAB|1 G2A:|2 G3||
dde fg2|dcd ed2|AAB ced|ccB cd2|
dde fg2|dcd ed2|AAB ced|ccB AG2:|

